dist/svg/printer-line.svg

<svg xmlns="http://www.w3.org/2000/svg" viewBox="0 0 24 24"><path d="M7.617 2.283q-.873.101-1.552.781A2.7 2.7 0 0 0 5.37 4.18l-.108.32-.013 1.863-.014 1.864-.449.044c-.743.073-1.219.292-1.721.793a2.74 2.74 0 0 0-.696 1.116l-.109.32v6l.109.32c.151.445.362.783.695 1.116.5.5 1.086.764 1.797.811l.368.024.024.368c.047.711.311 1.297.811 1.797.333.333.671.544 1.116.695l.32.109h9l.32-.109a2.74 2.74 0 0 0 1.116-.695c.5-.5.764-1.086.811-1.797l.024-.368.368-.024a2.7 2.7 0 0 0 1.797-.811c.333-.333.544-.671.695-1.116l.109-.32v-6l-.109-.32a2.74 2.74 0 0 0-.696-1.116c-.502-.501-.978-.72-1.721-.793l-.449-.044-.014-1.864-.013-1.863-.108-.32a2.7 2.7 0 0 0-.695-1.116c-.472-.471-.961-.709-1.606-.783-.422-.049-8.296-.046-8.712.002m8.911 1.59c.239.118.481.36.599.599.092.187.093.199.104 1.978l.011 1.79H6.76V6.505c0-1.895.002-1.914.236-2.233.14-.19.38-.373.59-.45.13-.048.833-.056 4.454-.049l4.3.007zm3 6c.239.118.481.36.599.599l.093.188v5.68l-.093.189a1.27 1.27 0 0 1-1.122.711h-.233l-.024-.39c-.03-.467-.101-.724-.321-1.15a2.86 2.86 0 0 0-1.127-1.128c-.653-.337-.234-.312-5.3-.312s-4.647-.025-5.3.312A2.86 2.86 0 0 0 5.573 15.7c-.22.426-.291.683-.321 1.15l-.024.39h-.233c-.468 0-.909-.279-1.122-.711l-.093-.189-.012-2.76c-.008-2.019.001-2.806.036-2.93.093-.34.433-.7.782-.828.131-.048 1.254-.056 7.454-.049l7.3.007zm-1.723 1.406c-.391.095-.651.559-.526.939.1.303.417.54.721.54.384 0 .76-.375.76-.758 0-.237-.189-.551-.395-.657a.95.95 0 0 0-.56-.064m-1.377 4.567c.315.116.61.412.728.73.084.226.087.284.076 1.5-.012 1.231-.014 1.269-.105 1.453-.132.268-.416.534-.674.63-.212.079-.302.081-4.453.081s-4.241-.002-4.453-.081c-.258-.096-.542-.362-.674-.63-.09-.184-.093-.224-.105-1.429-.015-1.499 0-1.578.349-1.953a1.15 1.15 0 0 1 .523-.332c.102-.034 1.269-.048 4.348-.051 4.208-.004 4.209-.004 4.44.082" fill-rule="evenodd"/></svg>

<svg fill="none" xmlns="http://www.w3.org/2000/svg" viewBox="0 0 24 24"><path d="M7.617 2.283 C 7.034 2.351,6.519 2.610,6.065 3.064 C 5.731 3.397,5.520 3.736,5.370 4.180 L 5.262 4.500 5.249 6.363 L 5.235 8.227 4.786 8.271 C 4.043 8.344,3.567 8.563,3.065 9.064 C 2.732 9.396,2.521 9.735,2.369 10.180 L 2.260 10.500 2.260 13.500 L 2.260 16.500 2.369 16.820 C 2.520 17.265,2.731 17.603,3.064 17.936 C 3.564 18.436,4.150 18.700,4.861 18.747 L 5.229 18.771 5.253 19.139 C 5.300 19.850,5.564 20.436,6.064 20.936 C 6.397 21.269,6.735 21.480,7.180 21.631 L 7.500 21.740 12.000 21.740 L 16.500 21.740 16.820 21.631 C 17.265 21.480,17.603 21.269,17.936 20.936 C 18.436 20.436,18.700 19.850,18.747 19.139 L 18.771 18.771 19.139 18.747 C 19.850 18.700,20.436 18.436,20.936 17.936 C 21.269 17.603,21.480 17.265,21.631 16.820 L 21.740 16.500 21.740 13.500 L 21.740 10.500 21.631 10.180 C 21.479 9.735,21.268 9.396,20.935 9.064 C 20.433 8.563,19.957 8.344,19.214 8.271 L 18.765 8.227 18.751 6.363 L 18.738 4.500 18.630 4.180 C 18.480 3.736,18.269 3.397,17.935 3.064 C 17.463 2.593,16.974 2.355,16.329 2.281 C 15.907 2.232,8.033 2.235,7.617 2.283 M16.528 3.873 C 16.767 3.991,17.009 4.233,17.127 4.472 C 17.219 4.659,17.220 4.671,17.231 6.450 L 17.242 8.240 12.001 8.240 L 6.760 8.240 6.760 6.505 C 6.760 4.610,6.762 4.591,6.996 4.272 C 7.136 4.082,7.376 3.899,7.586 3.822 C 7.716 3.774,8.419 3.766,12.040 3.773 L 16.340 3.780 16.528 3.873 M19.528 9.873 C 19.767 9.991,20.009 10.233,20.127 10.472 L 20.220 10.660 20.220 13.500 L 20.220 16.340 20.127 16.529 C 19.914 16.961,19.473 17.240,19.005 17.240 L 18.772 17.240 18.748 16.850 C 18.718 16.383,18.647 16.126,18.427 15.700 C 18.201 15.259,17.741 14.800,17.300 14.572 C 16.647 14.235,17.066 14.260,12.000 14.260 C 6.934 14.260,7.353 14.235,6.700 14.572 C 6.259 14.800,5.799 15.259,5.573 15.700 C 5.353 16.126,5.282 16.383,5.252 16.850 L 5.228 17.240 4.995 17.240 C 4.527 17.240,4.086 16.961,3.873 16.529 L 3.780 16.340 3.768 13.580 C 3.760 11.561,3.769 10.774,3.804 10.650 C 3.897 10.310,4.237 9.950,4.586 9.822 C 4.717 9.774,5.840 9.766,12.040 9.773 L 19.340 9.780 19.528 9.873 M17.805 11.279 C 17.414 11.374,17.154 11.838,17.279 12.218 C 17.379 12.521,17.696 12.758,18.000 12.758 C 18.384 12.758,18.760 12.383,18.760 12.000 C 18.760 11.763,18.571 11.449,18.365 11.343 C 18.220 11.269,17.967 11.240,17.805 11.279 M16.428 15.846 C 16.743 15.962,17.038 16.258,17.156 16.576 C 17.240 16.802,17.243 16.860,17.232 18.076 C 17.220 19.307,17.218 19.345,17.127 19.529 C 16.995 19.797,16.711 20.063,16.453 20.159 C 16.241 20.238,16.151 20.240,12.000 20.240 C 7.849 20.240,7.759 20.238,7.547 20.159 C 7.289 20.063,7.005 19.797,6.873 19.529 C 6.783 19.345,6.780 19.305,6.768 18.100 C 6.753 16.601,6.768 16.522,7.117 16.147 C 7.271 15.982,7.418 15.889,7.640 15.815 C 7.742 15.781,8.909 15.767,11.988 15.764 C 16.196 15.760,16.197 15.760,16.428 15.846 " stroke="none" fill-rule="evenodd" fill="currentColor"/></svg>
